!!!!SEGMENT: pl-kk--kk-i-382--049_schwertzer-j--sancta-maria.krn
!!!cenid: 18xx:1551
!!!COM: Schwertzer, J.
!!!COM-rismID: pe50045948
!!!CDT:
!!!CNT:
!!!OTL: Sancta Maria
!!!PDT:
!!!AGN: Sacred
!!!SMS-siglum: PL-Kk
!!!SMS-shelfmark: Kk.I.382
!!!SMS-shelfwork: 035 W
!!!SMS-variant:
!!!SMS-altvar:
!!!NIFC-rismSourceID: 1001140635
!!!NIFC-islandoraID: pl-kk:6162
!!!URL-pdf-islandora: https://repozytorium.nifc.pl/islandora/object/pl-kk%3A6162/datastream/PDF/view
!!!URL-scan: https://polish.musicsources.pl/pl/lokalizacje/galeria/rekopisy/5994 @EN{Scan on Polish Music Sources Website} @PL{Skany w portalu Dziedzictwo Muzyki Polskiej w otwartym dostępie}
!!!ONB-nifc: UWAGA: obsada: S/T1, T2, A/B1, B2. Skany 0040, 0110, 0182, 0255
!!!AIN: 1 alto 1 bass 2 tenor
!!!key:
**kern	**text	**kern	**text	**kern	**text	**dynam	**kern	**text	**dynam
*part4	*part4	*part3	*part3	*part2	*part2	*part2	*part1	*part1	*part1
*staff4	*staff4	*staff3	*staff3	*staff2	*staff2	*	*staff1	*staff1	*
*Ibass	*	*Ialto	*	*Itenor	*	*	*Itenor	*	*
*I"Basso II	*	*I"Alto vel Basso I	*	*I"Tenore II	*	*	*I"Soprano vel Tenore I.	*	*
*I'B II	*	*I'A vel B I	*	*I'T II	*	*	*I'S vel T I	*	*
*clefF4	*	*clefF4	*	*clefG2	*	*	*clefG2	*	*
*	*	*	*	*Trd0c0	*	*	*Trd0c0	*	*
*k[f#c#]	*	*k[f#c#]	*	*k[f#c#]	*	*	*k[f#c#]	*	*
*D:	*	*D:	*	*D:	*	*	*D:	*	*
*M4/4	*	*M4/4	*	*M4/4	*	*	*M4/4	*	*
*met(c)	*	*met(c)	*	*met(c)	*	*	*met(c)	*	*
=1	=1	=1	=1	=1	=1	=1	=1	=1	=1
*2\right	*	*2\right	*	*	*	*	*	*	*
!	!	!LO:TX:t=P:problem=all\right&colon; global	!	!	!	!	!	!	!
!	!	!LO:TX:a:t=P:problem=w źródle brak tytułu utworu przy głosie Alto vel Basso I	!	!	!	!	!	!	!
!	!	!	!	!	!	!	!	!	!LO:DY:a:rj
2D\	San-	2D\	San-	2f#/	San-	.	2a/	San-	p
2D\	-cta	2D\	-cta	2f#/	-cta	.	2a/	-cta	.
=2	=2	=2	=2	=2	=2	=2	=2	=2	=2
(<4GG/	san-	2D/	san-	2g/	san-	.	2b/	san-	.
4BB/)	.	.	.	.	.	.	.	.	.
2D\	-cta	2D\	-cta	2f#/	-cta	.	2a/	-cta	.
=3	=3	=3	=3	=3	=3	=3	=3	=3	=3
2D\	san-	2D\	san-	(<4f#/	san-	.	(<4a/	san-	.
.	.	.	.	4a/)	.	.	4ff#/)	.	.
4C#/	-cta	4G\	-cta	4a/	-cta	.	4ee/	-cta	.
4D\	Ma-	4F#/	Ma-	4a/	Ma-	.	4dd/	Ma-	.
=4	=4	=4	=4	=4	=4	=4	=4	=4	=4
2AA/	-ri-	2F#/	-ri-	2a/	-ri-	.	2dd/	-ri-	.
2AA/	-a	2E/	-a	2g/	-a	.	2cc#/	-a	.
=5	=5	=5	=5	=5	=5	=5	=5	=5	=5
2AA/	san-	2E/	san-	2a/	san-	.	2cc#/	san-	.
2AA/	-cta	(<4A\	-cta	2a/	-cta	.	2cc#/	-cta	.
.	.	4G\)	.	.	.	.	.	.	.
=6	=6	=6	=6	=6	=6	=6	=6	=6	=6
2D\	De-	2F#\	De-	2a/	De-	.	2dd/	De-	.
2D\	-i	2D\	-i	2a/	-i	.	2ff#/	-i	.
!LO:LB:g=original	!	!	!	!	!	!	!	!	!
=7	=7	=7	=7	=7	=7	=7	=7	=7	=7
(<4C#/	Ge-	(<4E/	Ge-	(<4a/	Ge-	.	(<4ee/	Ge-	.
4D/)	.	4F#/)	.	4b/)	.	.	4dd/)	.	.
2E\	-ni-	(<4E/	-ni-	(<4a/	-ni-	.	(<4cc#/	-ni-	.
.	.	4D/)	.	4g#X/)	.	.	4b/)	.	.
!	!	!LO:LB:g=original	!	!LO:LB:g=original	!	!	!LO:LB:g=original	!	!
=8	=8	=8	=8	=8	=8	=8	=8	=8	=8
!	!	!LO:SIC:v:l:s=-trix	!	!LO:SIC:v:l:s=-trix	!	!	!LO:SIC:v:l:s=-trix	!	!
2AA/	-trix	2C#/	-tris	2a/	-tris	.	2a/	-tris	.
2r	.	2r	.	2r	.	.	2r	.	.
=9	=9	=9	=9	=9	=9	=9	=9	=9	=9
!	!	!	!	!	!	!LO:DY:a:rj	!	!	!
2AA/	San-	2G\	San-	2a/	San-	p	2ee/	San-	.
2AA/	-cta	4F#\	-cta	2a/	-cta	.	(<4dd/	-cta	.
.	.	4E\	.	.	.	.	4cc#/)	.	.
=10	=10	=10	=10	=10	=10	=10	=10	=10	=10
2D\	Vir-	2F#\	Vir-	2a/	Vir-	.	2dd/	Vir-	.
2F#\	-go	2A\	-go	2dd/	-go	.	2dd/	-go	.
=11	=11	=11	=11	=11	=11	=11	=11	=11	=11
2A\	vir-	2A/	vir-	2cc#/	vir-	.	2ee/	vir-	.
2AA/	-go	2A/	-go	(<4dd/	-go	.	(<4ff#/	-go	.
.	.	.	.	4ee/)	.	.	4gg/)	.	.
=12	=12	=12	=12	=12	=12	=12	=12	=12	=12
!	!	!	!	!	!	!LO:DY:a:rj	!	!	!
4.D\	vir-	4.A/	vir-	4.ee/	vir-	f	4.gg/	vir-	.
8D\	-gi-	8A/	-gi-	8dd/	-gi-	.	8ff#/	-gi-	.
2D\	-num	2A\	-num	2dd/	-num	.	2ff#/	-num	.
=13	=13	=13	=13	=13	=13	=13	=13	=13	=13
2D\	o-	2A/	o-	2dd/	o-	.	2ff#/	o-	.
2D\	-ra	2F#/	-ra	2a/	-ra	.	2dd/	-ra	.
!LO:LB:g=original	!	!	!	!	!	!	!	!	!
=14	=14	=14	=14	=14	=14	=14	=14	=14	=14
!LO:TX:t=P:problem=w źródle w taktach 14,15,16 tekst nad pięciolinią	!	!	!	!	!	!	!	!	!
2GG/	o-	2G\	o-	2b/	o-	.	2dd/	o-	.
4GG/	-ra	4G\	-ra	4g/	-ra	.	4b/	-ra	.
4GG/	pro	4G\	pro	4b/	pro	.	4ee/	pro	.
=15	=15	=15	=15	=15	=15	=15	=15	=15	=15
1AA	no-	(<2F#/	no-	1a	no-	.	(<2dd/	no-	.
.	.	2E/)	.	.	.	.	2cc#/)	.	.
=16	=16	=16	=16	=16	=16	=16	=16	=16	=16
!	!	!LO:TX:t=P:problem=w źródle pojedyncza kreska końcowa	!	!	!	!	!	!	!
1D	-bis	1F#	-bis	1a	-bis	.	1dd	-bis	.
!LO:TX:a:t=P:problem=w źródle ozdobna kreska końcowa	!	!	!	!	!	!	!	!	!
==	==	==	==	==	==	==	==	==	==
*-	*-	*-	*-	*-	*-	*-	*-	*-	*-
!!!system-decoration: [(s1,s2,s3,s4)]
!!!RDF**kern: > = above
!!!RDF**kern: < = below
!!!EED: Wojciech Jakubiak-Danek
!!!EEV: 2021-02-10
!!!ENC: Katarzyna Serwa
!!!END: 2021-01-31
!!!YEC: Copyright 2022 Narodowy Instytut Fryderyka Chopina (https://polishscores.org)
!!!YEM: Licence CC BY 4.0 (https://creativecommons.org/licenses/by/4.0)
